static/img/kroki/72ea913dac019f412c7fdd2443a1cf20.svg

<?xml version="1.0" encoding="us-ascii" standalone="no"?><svg xmlns="http://www.w3.org/2000/svg" xmlns:xlink="http://www.w3.org/1999/xlink" contentStyleType="text/css" height="352px" preserveAspectRatio="none" style="width:400px;height:352px;" version="1.1" viewBox="0 0 400 352" width="400px" zoomAndPan="magnify"><defs/><g><!--class aws_iam_role--><g id="elem_aws_iam_role"><rect codeLine="23" fill="#3D176E" height="39.7891" id="aws_iam_role" rx="2.5" ry="2.5" style="stroke:#000D19;stroke-width:0.5;" width="157" x="211.77" y="7"/><ellipse cx="226.77" cy="26.8945" fill="#ADD1B2" rx="11" ry="11" style="stroke:#181818;stroke-width:1.0;"/><path d="M229.7388,32.5352 Q229.1606,32.832 228.52,32.9727 Q227.8794,33.1289 227.1763,33.1289 Q224.6763,33.1289 223.3481,31.4883 Q222.0356,29.832 222.0356,26.707 Q222.0356,23.582 223.3481,21.9258 Q224.6763,20.2695 227.1763,20.2695 Q227.8794,20.2695 228.52,20.4258 Q229.1763,20.582 229.7388,20.8789 L229.7388,23.5977 Q229.1138,23.0195 228.52,22.7539 Q227.9263,22.4727 227.3013,22.4727 Q225.9575,22.4727 225.27,23.5508 Q224.5825,24.6133 224.5825,26.707 Q224.5825,28.8008 225.27,29.8789 Q225.9575,30.9414 227.3013,30.9414 Q227.9263,30.9414 228.52,30.6758 Q229.1138,30.3945 229.7388,29.8164 L229.7388,32.5352 Z " fill="#000000"/><text fill="#D9B8FF" font-family="Helvetica" font-size="17" lengthAdjust="spacing" textLength="115" x="245.77" y="32.7798">aws_iam_role</text></g><!--class aws_sagemaker_domain--><g id="elem_aws_sagemaker_domain"><rect codeLine="26" fill="#3D176E" height="39.7891" id="aws_sagemaker_domain" rx="2.5" ry="2.5" style="stroke:#000D19;stroke-width:0.5;" width="248" x="69.27" y="106.79"/><ellipse cx="84.27" cy="126.6845" fill="#ADD1B2" rx="11" ry="11" style="stroke:#181818;stroke-width:1.0;"/><path d="M87.2388,132.3252 Q86.6606,132.622 86.02,132.7627 Q85.3794,132.9189 84.6763,132.9189 Q82.1763,132.9189 80.8481,131.2783 Q79.5356,129.622 79.5356,126.497 Q79.5356,123.372 80.8481,121.7158 Q82.1763,120.0595 84.6763,120.0595 Q85.3794,120.0595 86.02,120.2158 Q86.6763,120.372 87.2388,120.6689 L87.2388,123.3877 Q86.6138,122.8095 86.02,122.5439 Q85.4263,122.2627 84.8013,122.2627 Q83.4575,122.2627 82.77,123.3408 Q82.0825,124.4033 82.0825,126.497 Q82.0825,128.5908 82.77,129.6689 Q83.4575,130.7314 84.8013,130.7314 Q85.4263,130.7314 86.02,130.4658 Q86.6138,130.1845 87.2388,129.6064 L87.2388,132.3252 Z " fill="#000000"/><text fill="#D9B8FF" font-family="Helvetica" font-size="17" lengthAdjust="spacing" textLength="206" x="103.27" y="132.5698">aws_sagemaker_domain</text></g><!--class aws_sagemaker_pipeline--><g id="elem_aws_sagemaker_pipeline"><rect codeLine="29" fill="#3D176E" height="39.7891" id="aws_sagemaker_pipeline" rx="2.5" ry="2.5" style="stroke:#000D19;stroke-width:0.5;" width="251" x="67.77" y="306.37"/><ellipse cx="82.77" cy="326.2645" fill="#ADD1B2" rx="11" ry="11" style="stroke:#181818;stroke-width:1.0;"/><path d="M85.7388,331.9052 Q85.1606,332.202 84.52,332.3427 Q83.8794,332.4989 83.1763,332.4989 Q80.6763,332.4989 79.3481,330.8583 Q78.0356,329.202 78.0356,326.077 Q78.0356,322.952 79.3481,321.2958 Q80.6763,319.6395 83.1763,319.6395 Q83.8794,319.6395 84.52,319.7958 Q85.1763,319.952 85.7388,320.2489 L85.7388,322.9677 Q85.1138,322.3895 84.52,322.1239 Q83.9263,321.8427 83.3013,321.8427 Q81.9575,321.8427 81.27,322.9208 Q80.5825,323.9833 80.5825,326.077 Q80.5825,328.1708 81.27,329.2489 Q81.9575,330.3114 83.3013,330.3114 Q83.9263,330.3114 84.52,330.0458 Q85.1138,329.7645 85.7388,329.1864 L85.7388,331.9052 Z " fill="#000000"/><text fill="#D9B8FF" font-family="Helvetica" font-size="17" lengthAdjust="spacing" textLength="209" x="101.77" y="332.1498">aws_sagemaker_pipeline</text></g><!--class aws_sagemaker_user_profile--><g id="elem_aws_sagemaker_user_profile"><rect codeLine="32" fill="#3D176E" height="39.7891" id="aws_sagemaker_user_profile" rx="2.5" ry="2.5" style="stroke:#000D19;stroke-width:0.5;" width="283" x="51.77" y="206.58"/><ellipse cx="66.77" cy="226.4745" fill="#ADD1B2" rx="11" ry="11" style="stroke:#181818;stroke-width:1.0;"/><path d="M69.7388,232.1152 Q69.1606,232.412 68.52,232.5527 Q67.8794,232.7089 67.1763,232.7089 Q64.6763,232.7089 63.3481,231.0683 Q62.0356,229.412 62.0356,226.287 Q62.0356,223.162 63.3481,221.5058 Q64.6763,219.8495 67.1763,219.8495 Q67.8794,219.8495 68.52,220.0058 Q69.1763,220.162 69.7388,220.4589 L69.7388,223.1777 Q69.1138,222.5995 68.52,222.3339 Q67.9263,222.0527 67.3013,222.0527 Q65.9575,222.0527 65.27,223.1308 Q64.5825,224.1933 64.5825,226.287 Q64.5825,228.3808 65.27,229.4589 Q65.9575,230.5214 67.3013,230.5214 Q67.9263,230.5214 68.52,230.2558 Q69.1138,229.9745 69.7388,229.3964 L69.7388,232.1152 Z " fill="#000000"/><text fill="#D9B8FF" font-family="Helvetica" font-size="17" lengthAdjust="spacing" textLength="241" x="85.77" y="232.3598">aws_sagemaker_user_profile</text></g><!--link aws_iam_role to aws_sagemaker_domain--><g id="link_aws_iam_role_aws_sagemaker_domain"><path codeLine="35" d="M271.11,47.22 C254.1,64.36 233.6152,85.02 216.6252,102.15 " fill="none" id="aws_iam_role-to-aws_sagemaker_domain" style="stroke:#1A83AF;stroke-width:2.0;"/><polygon fill="#1A83AF" points="212.4,106.41,221.5778,102.8368,215.921,102.86,215.8978,97.2032,212.4,106.41" style="stroke:#1A83AF;stroke-width:2.0;"/></g><!--link aws_iam_role to aws_sagemaker_pipeline--><g id="link_aws_iam_role_aws_sagemaker_pipeline"><path codeLine="36" d="M305.38,47.15 C334.73,87.05 393.11,180.53 352.27,246.37 C334.25,275.44 307.5596,291.9749 276.7696,303.8249 " fill="none" id="aws_iam_role-to-aws_sagemaker_pipeline" style="stroke:#1A83AF;stroke-width:2.0;"/><polygon fill="#1A83AF" points="271.17,305.98,281.0061,306.4804,275.8363,304.1841,278.1327,299.0143,271.17,305.98" style="stroke:#1A83AF;stroke-width:2.0;"/></g><!--link aws_sagemaker_domain to aws_sagemaker_pipeline--><g id="link_aws_sagemaker_domain_aws_sagemaker_pipeline"><path codeLine="37" d="M126.21,147.06 C70.98,166.73 6,200.78 34.27,246.37 C52.3,275.44 78.9904,291.9749 109.7804,303.8249 " fill="none" id="aws_sagemaker_domain-to-aws_sagemaker_pipeline" style="stroke:#1A83AF;stroke-width:2.0;"/><polygon fill="#1A83AF" points="115.38,305.98,108.4173,299.0143,110.7137,304.1841,105.5439,306.4804,115.38,305.98" style="stroke:#1A83AF;stroke-width:2.0;"/></g><!--link aws_sagemaker_domain to aws_sagemaker_user_profile--><g id="link_aws_sagemaker_domain_aws_sagemaker_user_profile"><path codeLine="38" d="M193.27,147.01 C193.27,164.15 193.27,183.06 193.27,200.2 " fill="none" id="aws_sagemaker_domain-to-aws_sagemaker_user_profile" style="stroke:#1A83AF;stroke-width:2.0;"/><polygon fill="#1A83AF" points="193.27,206.2,197.27,197.2,193.27,201.2,189.27,197.2,193.27,206.2" style="stroke:#1A83AF;stroke-width:2.0;"/></g><!--link aws_sagemaker_user_profile to aws_sagemaker_pipeline--><g id="link_aws_sagemaker_user_profile_aws_sagemaker_pipeline"><path codeLine="39" d="M193.27,246.8 C193.27,263.94 193.27,282.85 193.27,299.99 " fill="none" id="aws_sagemaker_user_profile-to-aws_sagemaker_pipeline" style="stroke:#1A83AF;stroke-width:2.0;"/><polygon fill="#1A83AF" points="193.27,305.99,197.27,296.99,193.27,300.99,189.27,296.99,193.27,305.99" style="stroke:#1A83AF;stroke-width:2.0;"/></g><!--SRC=[jP11IyD048Nl-HKBFHSQYwQz2B5Gz5B4UXC9a-nikYIx6sOtbYh-TuqriatQj1UlyxwPzzvi94U6gd8xfb2bI3QmXTGL42WM4vdjmfI6s4W84DEeAowDTcU15IXazrY-ePCPT8ddZSmAZTQoAq-wWwp8oTIQxyyx0cs_9TJEenObM1ixHpAj7NfX-3oT2T4bkqT7Knv6DzZ3376aNsGocV1mtaNEMWts_YFMyXrPw3zjPHpsOlOiVgZ1b0tXXUmLRVMJ6H-1SwbpTktDdlQPI2CTpDSRu6RRq09AwzjOXuJ6xIfSz5hXVCP5T1H-E0K7MVCw1bkRI509cHBPHn1yUdCBEIeea19k54XzMgzaXQNK0nTgss1aX6nz3fp7BwCmdatZvUluzgZtnNWR9JZQu3yM_Mh1GEjBlBy0]--></g></svg>

<svg xmlns="http://www.w3.org/2000/svg" width="400" height="352" viewBox="0 0 400 352"><rect width="157" height="39.789" x="211.77" y="7" fill="#3D176E" rx="2.5" ry="2.5" style="stroke:#000d19;stroke-width:.5"/><circle cx="226.77" cy="26.895" r="11" fill="#ADD1B2" style="stroke:#181818;stroke-width:1"/><path d="M229.739 32.535q-.578.297-1.219.438-.64.156-1.344.156-2.5 0-3.828-1.64-1.312-1.657-1.312-4.782t1.312-4.781q1.328-1.656 3.828-1.656.703 0 1.344.156.656.156 1.219.453v2.719q-.625-.578-1.219-.844-.594-.281-1.219-.281-1.343 0-2.031 1.078-.687 1.062-.687 3.156t.687 3.172q.688 1.062 2.031 1.062.625 0 1.219-.265.594-.281 1.219-.86z"/><text x="245.77" y="32.78" fill="#D9B8FF" font-family="Helvetica" font-size="17" textLength="115">aws_iam_role</text><rect width="248" height="39.789" x="69.27" y="106.79" fill="#3D176E" rx="2.5" ry="2.5" style="stroke:#000d19;stroke-width:.5"/><circle cx="84.27" cy="126.684" r="11" fill="#ADD1B2" style="stroke:#181818;stroke-width:1"/><path d="M87.239 132.325q-.578.297-1.219.438-.64.156-1.344.156-2.5 0-3.828-1.64-1.312-1.657-1.312-4.782t1.312-4.781q1.328-1.656 3.828-1.656.703 0 1.344.156.656.156 1.219.453v2.719q-.625-.579-1.219-.844-.594-.281-1.219-.281-1.344 0-2.031 1.078-.687 1.062-.687 3.156t.687 3.172q.688 1.062 2.031 1.062.625 0 1.219-.265.594-.281 1.219-.86z"/><text x="103.27" y="132.57" fill="#D9B8FF" font-family="Helvetica" font-size="17" textLength="206">aws_sagemaker_domain</text><rect width="251" height="39.789" x="67.77" y="306.37" fill="#3D176E" rx="2.5" ry="2.5" style="stroke:#000d19;stroke-width:.5"/><circle cx="82.77" cy="326.264" r="11" fill="#ADD1B2" style="stroke:#181818;stroke-width:1"/><path d="M85.739 331.905q-.578.297-1.219.438-.64.156-1.344.156-2.5 0-3.828-1.64-1.312-1.657-1.312-4.782t1.312-4.781q1.328-1.656 3.828-1.656.703 0 1.344.156.656.156 1.219.453v2.719q-.625-.579-1.219-.844-.594-.281-1.219-.281-1.344 0-2.031 1.078-.687 1.062-.687 3.156t.687 3.172q.688 1.062 2.031 1.062.625 0 1.219-.265.594-.281 1.219-.86z"/><text x="101.77" y="332.15" fill="#D9B8FF" font-family="Helvetica" font-size="17" textLength="209">aws_sagemaker_pipeline</text><rect width="283" height="39.789" x="51.77" y="206.58" fill="#3D176E" rx="2.5" ry="2.5" style="stroke:#000d19;stroke-width:.5"/><circle cx="66.77" cy="226.475" r="11" fill="#ADD1B2" style="stroke:#181818;stroke-width:1"/><path d="M69.739 232.115q-.578.297-1.219.438-.64.156-1.344.156-2.5 0-3.828-1.64-1.312-1.657-1.312-4.782t1.312-4.781q1.328-1.656 3.828-1.656.703 0 1.344.156.656.156 1.219.453v2.719q-.625-.578-1.219-.844-.594-.281-1.219-.281-1.344 0-2.031 1.078-.687 1.062-.687 3.156t.687 3.172q.688 1.062 2.031 1.062.625 0 1.219-.265.594-.281 1.219-.86z"/><text x="85.77" y="232.36" fill="#D9B8FF" font-family="Helvetica" font-size="17" textLength="241">aws_sagemaker_user_profile</text><path fill="none" d="M271.11 47.22c-17.01 17.14-37.495 37.8-54.485 54.93" style="stroke:#1a83af;stroke-width:2"/><path fill="#1A83AF" d="m212.4 106.41 9.178-3.573-5.657.023-.023-5.657z" style="stroke:#1a83af;stroke-width:2"/><path fill="none" d="M305.38 47.15c29.35 39.9 87.73 133.38 46.89 199.22-18.02 29.07-44.71 45.605-75.5 57.455" style="stroke:#1a83af;stroke-width:2"/><path fill="#1A83AF" d="m271.17 305.98 9.836.5-5.17-2.296 2.297-5.17z" style="stroke:#1a83af;stroke-width:2"/><path fill="none" d="M126.21 147.06C70.98 166.73 6 200.78 34.27 246.37c18.03 29.07 44.72 45.605 75.51 57.455" style="stroke:#1a83af;stroke-width:2"/><path fill="#1A83AF" d="m115.38 305.98-6.963-6.966 2.297 5.17-5.17 2.296z" style="stroke:#1a83af;stroke-width:2"/><path fill="none" d="M193.27 147.01v53.19" style="stroke:#1a83af;stroke-width:2"/><path fill="#1A83AF" d="m193.27 206.2 4-9-4 4-4-4z" style="stroke:#1a83af;stroke-width:2"/><path fill="none" d="M193.27 246.8v53.19" style="stroke:#1a83af;stroke-width:2"/><path fill="#1A83AF" d="m193.27 305.99 4-9-4 4-4-4z" style="stroke:#1a83af;stroke-width:2"/></svg>
